X:1
T:Come lungi da voi
T:Antonio Morsolino
T:Source : Primo libro delle canzonette a tre voci---Venetia---R.Amadino---1594. Editor : André Vierendeels (14/08/17).
T:Notes : Original clefs : C1, C1, F4 Editorial accidentals above the staff "All'Illustrissimo Sig. Conte Girolamo Moron Stumpa"
T:Come lungi da voi
T:©
T:©
T:©
C:Antonio Morsolino
Z:©
%%score [ 1 2 3 ]
L:1/8
Q:1/4=120
M:4/4
K:F
V:1 treble nm="Soprano 1" snm="S 1"
V:2 treble nm="Soprano 2" snm="S 2"
V:3 bass nm="Bass" snm="B"
V:1
 d4 d2 d2 | d2 d2 f4- | f2 _e2 d2 d2 | c4 c4 | c2 A2 d4 | B4 G2 c2- | c2 B2 A4 |[M:2/4] G4 :: %8
w: Co- me lun-|gi da voi|_ dol- ce mio|be- ne|vi- ve- ro|sen- za pe-||ne.|
w: Co- me fa-|ro se non|_ ha- vro piu|cuo- re,|mo- ri- ro|di do- lo-||re.|
w: Ma spe- ro'an-|cor la do-|* ve n'an- de-|re- te|lo mio spir-|to ve- dre-||te.|
[M:4/4] A2 A2 A4 | B2 c2 d4 | f8 | _e2 d2 c4- | c4 d4 | d8 | c2 B2 c4- | c2 B2 A4 | A2 d2 c3 c | %17
w: E fa- cen-|do da me|l'al-|ma par- ti-|* ta,|co-|me pos- s'ha-|* ver vi-|ta, deh di- me-|
w: Che la schian-|do- mi tu|sen-|za con for-|* to,|for-|za'è ch'io re-|* sti mor-|to, deh di- me-|
w: Che l'os- sa|re- sta- ran|se-|polt' in ter-|* ra,|per|non ha- ver|_ piu guer-|.ra, ma dim- mi|
 c2 B2 A4 | A2 d2 c3 A | =B4 ^c2 d2- | d2 ^c2 d4 | f4 e2 d2 | c2 B2 A4 | c4 ^F4 | G4 B2 AG | %25
w: lo ben mi-|o, deh di- me-|lo ben mi-|* * o,|che que- sto|sol e l'ul-|ti- mo|de- si- * *|
w: lo mia gio-|ia, deh di- me-|lo mia gio-|* * ia,|che que- sto|sol de- sio|an- zi|ch'io mo- * *|
w: sol mio cuo-|re, ma dim- mi|sol mio cuo-|* * re,|se mi dai|mor- te sen-|ti- rai|do- lo- * *|
 A4 !fermata!G4 :| %26
w: * o.|
w: * ia.|
w: * re?|
V:2
 B4 B2 B2 | B2 B2 d4- | d2 c2 B2 B2 | A4 A4 | A2 F2 B4 | G4 B2 A2- | A2 G4 ^F2 |[M:2/4] G4 :: %8
w: Co- me lun-|gi da voi|_ dol- ce mio|be- ne|vi- ve- ro|sen- za pe-||ne.|
w: Co- me fa-|ro se non|_ ha- vro piu|cuo- re,|mo- ri- ro|di do- lo-||re.|
w: Ma spe- ro'an-|cor la do-|* ve n'an- de-|re- te|lo mio spir-|to ve- dre-||te.|
[M:4/4] F2 F2 F4 | G2 A2 B4 | d8 | c2 B2 A2 B2- | B2 A2 B4 | B8 | A2 G2 E2 F2 | G2 E2 ^F4 | %16
w: E fa- cen-|do da me|l'al-|ma par- ti- *|* * ta,|co-|me pos- s'ha- *|* ver vi-|
w: Che la schian-|do- mi tu|sen-|za con- for- *|* * to,|for-|za'è ch'io re- *|* sti mor-|
w: Che l'os- sa|re- sta- ran|se-|polt' in ter- *|* * ra,|per|non ha- ver _|_ piu guer-|
 ^F2 B2 A3 A | A2 G2 ^F4 | ^F2 B2 A3 A | G6 F2 | E4 ^F4 | d4 c2 B2 | A2 G2 F4 | A4 A4 | %24
w: ta, deh di- me-|lo ben mi-|o, deh di- me-|lo ben|mi- o,|che que- sto|sol e l'ul-|ti- mo|
w: to, deh di- me-|lo mia gio-|ia, deh di- me-|lo mia|gio- ia,|che que- sto|sol de- sio|an- zi|
w: ra, ma dim- mi|sol mio cuo-|re, ma dim- mi|sol mio|cuo- re,|se mi dai|mor- te sen-|ti- rai|
 B4 ^F2 G2- | G2 ^F2 !fermata!G4 :| %26
w: de- si- *|* * o.|
w: ch'io mo- *|* * ia.|
w: do- lo- *|* * re?|
V:3
 B,4 B,2 B,2 | B,2 B,2 B,,4- |"^-natural" B,,2 C,2 D,2 E,2 | F,4 F,4- | F,2 F,2 D,2 G,2- | %5
w: Co- me lun-|gi da voi|_ dol- ce mio|be- ne|_ vi- ve- ro|
w: Co- me fa-|ro se non|_ ha- vro piu|cuo- re,|_ mo- ri- ro|
w: Ma spe- ro'an-|cor la do-|* ve n'an- de-|re- te,|_ lo mio spir-|
 G,2 _E,4 C,2 | D,8 |[M:2/4] G,,4 ::[M:4/4] D,2 D,2 D,4 | G,2 F,2 B,4 | B,,4 D,4 | _E,4 F,4- | %12
w: _ sen- za|pe-|ne.|E fa- cen-|do da me|l'al- ma|par- ti-|
w: _ di do-|lo-|re.|Che la schian-|do- mi tu|sen- za|con- for-|
w: * to ve-|dre|te.|Che l'os- sa|re- sta- ran|se- polt'|in ter-|
 F,4 B,,4 | B,8 | F,2 G,2 C,4 | C,4 D,4 | D,2 B,,2 F,3 F, | F,2 G,2 D,4 | D,2 B,,2 F,3 F, | %19
w: * ta,|co-|me pos- s'ha-|ver vi-|ta, deh di- me-|lo ben mi-|o, deh di- me-|
w: * to,|for-|za'è ch'io re-|sti mor-|to, deh di- me-|lo mia gio-|ia, deh di- me-|
w: * ra,|per|non ha- ver|piu guer-|ra, ma dim- mi|sol mio cuo-|re, ma dim- mi|
 G,2 G,2 A,4- | A,4 D,4 | B,,4 C,2 C,2 | C,2 C,2 D,4 | A,,4 D,4 | D,4 D,4- | D,4 !fermata!G,,4 :| %26
w: lo ben mi-|* o,|che que- sto|sol e l'ul-|ti- mo|de- si-|* o.|
w: lo mia gio-|* ia,|che que- sto|sol de- sio|an- zi|ch'io mo-|* ia.|
w: sol mio cuo-|* re,|se mi dai|mor- te sen-|ti- rai|do- lo-|* re?|

